X: 13324
T: Flannan Islands Mystery
R: reel
M: 4/4
K: Eminor
eEdE cEBE|dDcD BDAD|GEBE cEBE|GEBE F3F|
eEdE cEBE|dDcD BDAD|GEBE cEBE|cAF^DE3e:|
|:BEFE dGAG|eABA fB^cB|gefe bgag|agfg f3 f|
BEFE dGAG|eABA fB^cB|GEBE cEBE|cAF^DE3e:|

